!!!OTL: Rache im Zweikampf Dans mon pays il-y-a-t-un capitain'
!!!ARE: Europa, Mitteleuropa, France, Franche - Comte
!!!YOR: 5, S. 105
!!    1884 gedruckt in Paris
!!!SCT: Q2097B
!!!YEM: Copyright 1995, estate of Helmut Schaffrath.
**kern
*ICvox
*Ivox
*MFREI6/8
*k[]
*C:
=0
{8cc
8b
8cc
=1
=2
8dd
8cc
8b
8a
8b
8a
=3
=4
4.g}
{8cc
8b
8cc
=5
=6
8dd
8cc
8b
8a
8b
8a
=7
=8
[4.g
4g]}
{8a
4g
8f
=9
=10
[4.e
4e]
8cc
4dd
8ee
=11
=12
[4.ff
4ff]
8ee
=13
=14
4.dd
4cc}
{8ee
=15
=16
4g
8f
4.e
=17
=18
8a
8b
8a
4g
8dd
=19
=20
2.cc}
==
!!!AGN: Ballade, Frau in Maennerkleidung, Soldat, Betrug, Rache
!! Franzoesische Fassung der Ballade. Duolen in der dritten Zeile
!!    rhythmisch veraendert.
!!!ONB: ESAC (Essen Associative Code) Database: BALLADE
!!!AMT: irregular
!!!AIN: vox
!!!EED: Helmut Schaffrath
!!!EEV: 1.0
*-
